X:1082
L:1/8
Q:3/8=120
M:9/8
K:A
 e3 aed cBA | cde faf ecA | e3 aed cBA | EGB dcB cBA |: e3 ecA faf | e3 ecA dcB | cde faf ecA | 
 EGB dcB cBA"^*" :|

